static/assets/images/networks/movement-mono-1.svg

<svg width="321" height="256" viewBox="0 0 321 256" fill="none" xmlns="http://www.w3.org/2000/svg">
<path fill-rule="evenodd" clip-rule="evenodd" d="M0.207566 19.846C0.207566 41.5742 0.386112 43.5808 2.8394 49.4444C7.86456 61.455 18.7384 68.1223 35.0341 69.1842C73.8979 71.7173 73.8688 122.222 35.0019 124.717C11.4574 126.229 -1.99488 140.93 0.241072 162.706C2.07762 180.592 13.0229 190.177 34.5933 192.789C58.0064 195.624 62.8072 203.909 62.8072 241.478V255.995H131.138V235.942C131.138 202.02 122.982 188.637 97.1809 187.267C55.7934 185.069 56.8646 129.98 98.295 129.98C115.952 129.98 125.101 138.904 125.849 156.857C127.81 203.894 192.454 203.272 194.598 156.196C196.258 119.74 251.571 120.869 253.144 157.39C253.902 174.977 242.211 183.434 223.306 187.267C197.264 192.547 189.329 203.342 189.329 235.942V256L257.439 255.774L257.706 237.93C258.228 203.063 262.878 195.552 285.653 192.785C333.684 186.949 332.348 124.81 284.188 124.685C272.34 124.654 261.954 117.172 257.926 105.766C251.69 88.1084 265.424 69.2362 284.551 69.1816C302.118 69.1318 314.414 60.4346 318.912 44.8779L320.259 40.2176V0H252.067L251.788 20.3782C251.413 47.7335 250.72 50.2556 241.451 57.9852C237.012 61.6872 236.689 61.7767 230.504 61.01C203.467 57.6578 186.236 72.9497 186.787 99.8067L186.904 105.543L185.257 108.888C175.602 128.498 144.705 128.597 135.07 109.048L133.562 105.989L133.464 98.4875C133.12 72.1055 116.274 57.5851 89.919 60.9541C83.2847 61.8022 82.3739 61.4541 76.8925 55.9778C69.1936 48.2856 68.9789 47.3299 68.9789 20.7554V0H0.207566V19.846Z" fill="black"/>
</svg>

<svg xmlns="http://www.w3.org/2000/svg" fill="none" viewBox="0 0 321 256"><path fill="#000" fill-rule="evenodd" d="M.208 19.846c0 21.728.178 23.735 2.631 29.598 5.026 12.011 15.9 18.678 32.195 19.74 38.864 2.533 38.835 53.038-.032 55.533-23.545 1.512-36.997 16.213-34.76 37.989 1.836 17.886 12.78 27.471 34.351 30.083 23.413 2.835 28.214 11.12 28.214 48.689v14.517h68.331v-20.053c0-33.922-8.156-47.305-33.957-48.675-41.388-2.198-40.316-57.287 1.114-57.287 17.657 0 26.806 8.924 27.554 26.877 1.961 47.037 66.605 46.415 68.749-.661 1.66-36.456 56.973-35.327 58.546 1.194.758 17.587-10.933 26.044-29.838 29.877-26.042 5.28-33.977 16.075-33.977 48.675V256l68.11-.226.267-17.844c.522-34.867 5.172-42.378 27.947-45.145 48.031-5.836 46.695-67.975-1.465-68.1-11.848-.031-22.234-7.513-26.262-18.919-6.236-17.658 7.498-36.53 26.625-36.584 17.567-.05 29.863-8.747 34.361-24.304l1.347-4.66V0h-68.192l-.279 20.378c-.375 27.356-1.068 29.878-10.337 37.607-4.439 3.702-4.762 3.792-10.947 3.025-27.037-3.352-44.268 11.94-43.717 38.797l.117 5.736-1.647 3.345c-9.655 19.61-40.552 19.709-50.187.16l-1.508-3.059-.098-7.502c-.344-26.381-17.19-40.902-43.545-37.533-6.634.848-7.545.5-13.026-4.976-7.7-7.692-7.914-8.648-7.914-35.223V0H.208z" clip-rule="evenodd"/></svg>
